X: 319
T: Paoda Huaxiancheng
%%abc-version 2.0
%%abcx-abcm2ps-target-version 5.9.1 (29 Sep 2008)
%%abc-creator hum2abc beta
%%abcx-conversion-date 2013/10/02 07:52:30
%%abc-edited-by Helmut Schaffrath
%%humdrum-veritas 1043366798
%%humdrum-veritas-data 3767761881
%%continueall 1
%%barnumbers 0
L: 1/8
M: 2/4
K: G
e2B e [I:setbarnb 1]| 
d dB2 | 
e g d f | 
e c B A | 
G2D E | 
G2z2 | 
g2f e | 
d Bg2 | 
e c B A | 
G2d2 | 
A d A E | 
G2F E | 
D3E | 
D2z2 | 
d2d2 | 
A B F E | 
D3E | 
D4 |]  



